X:1
T:James Gibb editions
T:Benedictus sit Deus - Ravanello
T:#
%%score { 1 | 2 } 3
L:1/8
Q:1/4=76
M:4/4
K:C
V:1 treble nm="Soprano I" snm="S"
V:2 treble 
V:3 treble nm="Alto" snm="A"
V:1
"^Benedictus sit Deus, op.66/17""^Oreste Ravanello\n (1871-1938)""^moderato"!f! c3 c d2 d2 | %1
w: Be- ne- di- ctus|
 e2 f4 e2 | d8 |"^," e2 e4 c2 | d2 e2 f2 e2 | d4 d4 |[M:4/4] (dc B2 A3) A |"^," B4 B2 c2 | %8
w: sit De- us|Pa-|ter, u- ni-|ge- ni- tu- sque|De- i|Fi\- * * * li-|us, San- ctus|
 d2 (Bc) d4- | d2 c2 B4 | G2 A2 B2 (GA) | (B6 A2 | G2) G2 ^F4- | F2 z2 z4 | z2!f! !>!e4 d2 | %15
w: quo- que * Spi\-|* ri- tus,|san- ctus quo- que *|Spi\- *|* ri- tus:||Qui- a|
 c4"^," e2 e2 | d4 d4 | z2 !^!g4 =f2 | e4 e2"^," e2 | (e2 d2)"^," c2 g2 | (g3 f)"^," e2 e2 | %21
w: fe- cit no-|bis- cum,|Qui- a|fe- cit no-|bis\- * cum, no-|bis\- * cum mi-|
 f2 e2 d2 cc | (c2 BA)"^," B2 B2 | c4 d4 |[Q:1/4=74] e6[Q:1/4=73] d[Q:1/4=72]c | %25
w: se- ri- cor- di- am|su\- * * am, mi-|se- ri-|cor- di- am|
[Q:1/4=72] (B2[Q:1/4=70] c4[Q:1/4=69] B2) |[Q:1/4=67] !fermata!c8 |] %27
w: su\- * *|am.|
V:2
!f! c3 c c2 B2 | c2 A4 c2- | c2 (BA B4) |"^," c2 G4 A2 | A2 G2 (AB c2- | c2) (BA) G2 ^F2 | %6
w: Be- ne- di- ctus|sit De- us|* Pa\- * *|ter, u- ni-|ge- ni- tu\- * *|* sque * De- i|
[M:4/4] G6 ^F2 |"^," G4 G2 A2 | B2 (GA) (B2 A2) | G4 ^F4 | E2 ^F2 G2 (EF) | (^F4 E4- | %12
w: Fi- li-|us, San- ctus|quo- que * Spi\- *|ri- tus,|san- ctus quo- que *|Spi\- *|
 E2) E2 ^D4- | D2 z2 z4 | z8 | z2!f! !>!A4 G2 | ^F4 F2 A2 | B4 B4 | z2 !^!c4 B2 | A4 G2 G2 | %20
w: * ri- tus:|||Qui- a|fe- cit no-|bis- cum,|Qui- a|fe- cit no-|
 (A2 B2)"^," c2 c2 | c2 B2 A2 GG | F4"^," F2 F2 | (E2 c4) B2 | B2 (AG) A4 | (G4 F4) | %26
w: bis\- * cum mi-|se- ri- cor- di- am|su- am, mi-|se\- * ri-|cor- di\- * am|su\- *|
 !fermata!E8 |] %27
w: am.|
V:3
!f! C3 C G2 G2 | C2 F4 C2 | G8 |"^," C2 C4 F2 | F2 E2 D2 C2 | (G3 A B2) A2 |[M:4/4] (BA G2 C2) D2 | %7
w: Be- ne- di- ctus|sit De- us|Pa-|ter, u- ni-|ge- ni- tu- sque|De\- * * i|Fi\- * * * li-|
"^," G4 G2 G2 | G2 G2 (GD ^F2 | E3) E ^D4 | E2 E2 E2 E2 | (E2 =D2 C4 | B,2) B,2 B,4- | %13
w: us, San- ctus|quo- que Spi\- * *|* ri- tus,|san- ctus quo- que|Spi\- * *|* ri- tus:|
"^," B,2!f! !>!B4 A2 | G4 ^G2 B2 | A4 C4 | D4 D2 ^F2 | G4 G4 | C4 E4 | F4 E2 E2 | D4"^," C2 c2 | %21
w: * Qui- a|fe- cit no-|bis- cum,|fe- cit no-|bis- cum,|Qui- a|fe- cit no-|bis- cum mi-|
 A2 G2 F2 EE | D4"^," D2 D2 | A,4 G,4 | C4 F2 F2 | (F2 E2 D4) | !fermata!C8 |] %27
w: se- ri- cor- di- am|su- am, mi-|se- ri-|cor- di- am|su\- * *|am.|

